X: 80
T:Silver Spear, The***
M:C|
L:1/8
Q:150
R:Reel
Z:As played by the Ceili band /SE
K:D
FAAA BAFA|dfed B2A2|FAAA BAFA|dfed B2A2|\
FAAA BAFA|dfed B2(3def|g2ge f2fe|dfed B2A2::\
faaa baaf|gfed B2A2|faaa baaf|gfed B2A2|\
faaa baaf|gfed B2(3def|g2ge f2fe|dfed B2A2:|

